luts/LUTsWarmTonesPresetpro/OPEN - Warm Tones LUT/2. Presetpro - Warm Tones LUT/Presetpro - Warm Tones.cube
#Created by: Adobe Photoshop Export Color Lookup Plugin
#Copyright: (C) Copyright 2022 Tim Martin and Presetpro.com
TITLE "Presetpro - Warm Tones.jpg"
#LUT size
LUT_3D_SIZE 32
#data domain
DOMAIN_MIN 0.0 0.0 0.0
DOMAIN_MAX 1.0 1.0 1.0
#LUT data points
0.003937 0.003937 0.000000
0.008087 0.000000 0.003937
0.024536 0.000519 0.000519
0.039581 0.007477 0.000000
0.047577 0.008362 0.003937
0.059448 0.016327 0.007202
0.073608 0.017944 0.004669
0.098938 0.027466 0.011780
0.111816 0.029480 0.009857
0.133972 0.036957 0.018463
0.163300 0.031372 0.010498
0.199097 0.037842 0.020996
0.236542 0.025940 0.014160
0.282715 0.021881 0.021240
0.328644 0.004303 0.019623
0.376068 0.002014 0.021637
0.423920 0.001892 0.019745
0.479584 0.000000 0.021362
0.525116 0.001648 0.017334
0.579132 0.000000 0.015686
0.624420 0.002533 0.016815
0.674774 0.001251 0.009094
0.717010 0.000000 0.008972
0.756744 0.000000 0.004944
0.796478 0.003052 0.000000
0.834656 0.000763 0.000763
0.875916 0.000641 0.000000
0.900452 0.003418 0.000000
0.925110 0.010620 0.001129
0.956116 0.091583 0.000000
0.983948 0.148254 0.000122
1.000000 0.196075 0.000000
0.000000 0.015808 0.000122
0.007965 0.015808 0.003784
0.020233 0.015930 0.000244
0.035431 0.016052 0.000244
0.052002 0.023773 0.000641
0.063507 0.027191 0.000244
0.080566 0.028320 0.004181
0.096008 0.035431 0.007965
0.118164 0.039337 0.012024
0.138885 0.042114 0.018219
0.166199 0.043152 0.010895
0.205414 0.041870 0.019592
0.238068 0.032654 0.018219
0.280548 0.029724 0.020996
0.328888 0.008606 0.023529
0.377960 0.002014 0.021637
0.428101 0.000000 0.017578
0.483521 0.000000 0.012146
0.529175 0.002167 0.025543
0.581543 0.002411 0.013519
0.627228 0.000000 0.017975
0.677063 0.003937 0.006439
0.719818 0.000122 0.008850
0.759521 0.002777 0.002136
0.794830 0.001129 0.002899
0.839233 0.000122 0.000763
0.875916 0.000641 0.000000
0.903229 0.006714 0.003296
0.927521 0.032257 0.000122
0.959900 0.111816 0.000000
0.984070 0.160156 0.000244
1.000000 0.204041 0.004059
0.000000 0.024048 0.008087
0.003937 0.027710 0.011902
0.019348 0.027954 0.007843
0.035309 0.035553 0.004181
0.051483 0.032623 0.007080
0.064270 0.036041 0.004547
0.080688 0.039215 0.004669
0.098938 0.044006 0.007477
0.118011 0.046051 0.018860
0.140289 0.050995 0.006958
0.167603 0.050232 0.009094
0.214539 0.043640 0.018219
0.240723 0.047058 0.018219
0.289673 0.037567 0.018463
0.338501 0.022003 0.017212
0.383911 0.006348 0.023010
0.430389 0.005554 0.019623
0.483521 0.000000 0.013794
0.533478 0.003662 0.013397
0.591309 0.000000 0.019104
0.632019 0.000000 0.016815
0.676178 0.002655 0.010254
0.723724 0.002777 0.003937
0.759644 0.002899 0.000519
0.800385 0.003296 0.006439
0.842010 0.003937 0.000000
0.875916 0.000641 0.000244
0.903870 0.000000 0.006836
0.931061 0.056671 0.007599
0.956360 0.124237 0.000000
0.980652 0.172424 0.000244
1.000000 0.212280 0.000000
0.000366 0.043518 0.019989
0.000122 0.043274 0.019745
0.007721 0.047577 0.015686
0.019226 0.048584 0.016449
0.040619 0.056030 0.001251
0.056427 0.055786 0.007965
0.080322 0.055267 0.008209
0.103729 0.055664 0.009094
0.120422 0.053497 0.018219
0.147736 0.059570 0.008209
0.181885 0.059204 0.020477
0.210236 0.060211 0.020233
0.252228 0.055664 0.017578
0.288666 0.047821 0.018219
0.337219 0.036804 0.016815
0.389343 0.024414 0.021118
0.435822 0.001892 0.019623
0.491730 0.000000 0.017853
0.541199 0.002014 0.013794
0.591797 0.000000 0.009735
0.634796 0.000000 0.013153
0.681732 0.000000 0.005310
0.727264 0.001526 0.004669
0.766113 0.000366 0.000000
0.796326 0.000000 0.003418
0.839722 0.001129 0.000366
0.868683 0.003296 0.000000
0.913849 0.020630 0.001129
0.935364 0.089813 0.007477
0.959900 0.144714 0.000244
0.984436 0.188232 0.000763
0.996460 0.221130 0.000000
0.003418 0.052002 0.034790
0.007324 0.055908 0.038696
0.003662 0.056152 0.028473
0.003937 0.067169 0.024536
0.027466 0.071106 0.009369
0.059082 0.076141 0.015564
0.075775 0.079193 0.013672
0.103729 0.076538 0.010895
0.129028 0.076019 0.005432
0.161530 0.069458 0.010742
0.181519 0.076782 0.020355
0.224670 0.069824 0.016815
0.263489 0.074005 0.017700
0.300537 0.070587 0.020874
0.345459 0.055542 0.020111
0.396698 0.041870 0.016571
0.445923 0.023010 0.013275
0.494781 0.002777 0.015167
0.543610 0.003418 0.015686
0.595337 0.001526 0.007843
0.640625 0.002014 0.005066
0.686554 0.000000 0.001251
0.726501 0.000000 0.000000
0.767487 0.005829 0.000000
0.801392 0.003418 0.006836
0.844025 0.001251 0.000000
0.879333 0.017212 0.003296
0.903870 0.071594 0.006836
0.937134 0.119171 0.000885
0.960266 0.168365 0.000763
0.984680 0.204803 0.004303
1.000000 0.241241 0.000000
0.000000 0.075775 0.038574
0.000000 0.076416 0.039215
0.000000 0.076416 0.038574
0.000366 0.080078 0.035675
0.011017 0.084869 0.027710
0.031372 0.088165 0.020233
0.070953 0.100067 0.024170
0.096130 0.104492 0.012024
0.132812 0.105377 0.019623
0.160767 0.092712 0.017212
0.197845 0.095367 0.015045
0.237305 0.091461 0.011658
0.276001 0.090576 0.018097
0.318634 0.086517 0.018585
0.360260 0.079834 0.013275
0.408081 0.068054 0.011261
0.453156 0.057922 0.019470
0.501984 0.033264 0.010742
0.553833 0.011993 0.010498
0.605072 0.001251 0.008362
0.649231 0.001404 0.001404
0.695648 0.000000 0.001251
0.731812 0.000000 0.000000
0.769775 0.002289 0.000000
0.810638 0.005035 0.001526
0.845306 0.033264 0.002014
0.875916 0.081085 0.000000
0.909058 0.119415 0.000641
0.939026 0.155212 0.003296
0.960907 0.192413 0.000244
0.987854 0.225677 0.003784
0.999359 0.264648 0.000000
0.000000 0.094879 0.043884
0.003174 0.098785 0.047821
0.000000 0.095642 0.044647
0.000000 0.096405 0.040741
0.000763 0.103485 0.043640
0.006958 0.108032 0.031494
0.039215 0.116760 0.025940
0.083618 0.126495 0.017334
0.125092 0.135864 0.011780
0.164185 0.125732 0.014923
0.199493 0.127777 0.015930
0.249969 0.117401 0.013550
0.286621 0.115997 0.014038
0.328369 0.109039 0.011139
0.372162 0.104980 0.007080
0.421844 0.093994 0.010101
0.471741 0.086761 0.013672
0.520569 0.076141 0.005676
0.566742 0.062744 0.005554
0.608124 0.054626 0.000000
0.653381 0.039581 0.000763
0.699066 0.036285 0.001892
0.738892 0.032623 0.000763
0.784088 0.045776 0.000000
0.815308 0.067810 0.000763
0.847961 0.097137 0.003937
0.874146 0.130676 0.003174
0.905365 0.162292 0.000000
0.940430 0.192535 0.001526
0.958130 0.221619 0.003662
0.990906 0.253387 0.000122
1.000000 0.287781 0.001526
0.003052 0.117249 0.059723
0.000000 0.120300 0.059723
0.003052 0.116364 0.055267
0.003052 0.117249 0.054901
0.006073 0.124359 0.053131
0.000000 0.131165 0.052765
0.008484 0.136749 0.037842
0.048828 0.148621 0.026184
0.108521 0.163574 0.017578
0.155823 0.171906 0.007599
0.204926 0.169128 0.010010
0.244019 0.162933 0.002533
0.295624 0.155853 0.004547
0.341034 0.141663 0.008484
0.391876 0.135101 0.010010
0.437531 0.127136 0.000000
0.484528 0.123688 0.001892
0.527649 0.117249 0.000000
0.575592 0.112701 0.000000
0.620758 0.105499 0.001526
0.663635 0.100311 0.000000
0.707031 0.103333 0.000000
0.747253 0.103088 0.000000
0.786102 0.112061 0.000000
0.820374 0.127258 0.004303
0.854401 0.148895 0.006958
0.878296 0.172668 0.003052
0.910431 0.195068 0.000000
0.943970 0.222900 0.001770
0.958130 0.250092 0.000000
0.991638 0.277527 0.005829
1.000000 0.311584 0.001770
0.002899 0.144196 0.058929
0.003784 0.145081 0.065643
0.000000 0.141296 0.061859
0.004303 0.143951 0.064392
0.001007 0.148132 0.074524
0.000000 0.153687 0.060577
0.000000 0.161652 0.055145
0.009613 0.170654 0.046051
0.070587 0.182526 0.037201
0.130920 0.199249 0.006592
0.207458 0.209717 0.001007
0.251862 0.206573 0.003662
0.300812 0.199615 0.005829
0.355316 0.188721 0.002289
0.401611 0.178986 0.001007
0.455505 0.166992 0.000000
0.493622 0.159882 0.002899
0.545105 0.154083 0.001007
0.588257 0.155701 0.001282
0.634155 0.149139 0.002808
0.671997 0.150146 0.002411
0.716003 0.149506 0.001251
0.752960 0.156738 0.002777
0.792053 0.163940 0.000000
0.824921 0.177734 0.003021
0.854645 0.194672 0.001526
0.884369 0.215546 0.000641
0.913727 0.234406 0.001007
0.939667 0.258423 0.006073
0.961548 0.280701 0.000244
0.987732 0.309296 0.000000
0.996063 0.334473 0.002899
0.000000 0.175446 0.072845
0.002899 0.175201 0.075531
0.001129 0.170380 0.074005
0.003937 0.173187 0.076782
0.000641 0.176453 0.075775
0.000000 0.182281 0.070068
0.002777 0.191650 0.063507
0.002777 0.195679 0.057434
0.010620 0.213287 0.047302
0.088562 0.219727 0.027466
0.163544 0.233521 0.006592
0.257935 0.256653 0.000000
0.305725 0.257172 0.000000
0.363434 0.241608 0.000000
0.413910 0.233643 0.004547
0.464630 0.223785 0.005066
0.512329 0.207947 0.000000
0.560822 0.198578 0.000000
0.604706 0.196686 0.003937
0.649353 0.190002 0.002533
0.683258 0.195068 0.001404
0.721954 0.193787 0.001526
0.762939 0.201752 0.002258
0.798218 0.207947 0.004547
0.823273 0.223511 0.000000
0.856934 0.238556 0.000000
0.887665 0.255402 0.000000
0.917908 0.271973 0.007355
0.944733 0.290070 0.001526
0.965088 0.313599 0.004791
0.989105 0.335236 0.001251
0.997223 0.361420 0.006714
0.001251 0.207581 0.080963
0.000122 0.210358 0.086273
0.000000 0.210236 0.086151
0.000000 0.210236 0.086151
0.000000 0.209473 0.085388
0.000641 0.210876 0.084259
0.000000 0.218842 0.078186
0.000000 0.228058 0.067932
0.000000 0.241608 0.054504
0.029846 0.251984 0.043762
0.129272 0.266388 0.019745
0.205688 0.280060 0.000122
0.314972 0.304108 0.002533
0.371521 0.298645 0.000366
0.421356 0.290680 0.004669
0.473358 0.282227 0.000000
0.519440 0.272217 0.001251
0.571045 0.260681 0.001251
0.611877 0.247406 0.004547
0.657074 0.240356 0.004181
0.692352 0.235016 0.001404
0.734741 0.243011 0.001251
0.769257 0.249451 0.001251
0.797211 0.254639 0.001251
0.832520 0.266907 0.001251
0.866028 0.275391 0.001892
0.896149 0.293976 0.000000
0.922211 0.306000 0.002167
0.942932 0.327515 0.000763
0.966370 0.345978 0.002655
0.993042 0.367981 0.003937
0.997345 0.392029 0.001251
0.000000 0.245026 0.089050
0.000000 0.250092 0.091583
0.000000 0.248688 0.099426
0.000000 0.246155 0.096893
0.000000 0.247803 0.095276
0.000000 0.249451 0.097900
0.000641 0.256531 0.090454
0.000000 0.264130 0.081726
0.003540 0.272095 0.069061
0.001129 0.283997 0.058197
0.068054 0.295868 0.045929
0.166351 0.311432 0.005310
0.257019 0.323944 0.001526
0.367462 0.351410 0.001404
0.433746 0.350525 0.000000
0.479919 0.339142 0.002411
0.533081 0.330658 0.000000
0.577637 0.319519 0.000763
0.623810 0.309143 0.002533
0.665802 0.298889 0.000000
0.705627 0.288147 0.002777
0.736267 0.285492 0.000000
0.775848 0.292328 0.003937
0.809113 0.294617 0.002411
0.840485 0.304108 0.000000
0.871490 0.315613 0.005310
0.894135 0.331177 0.001404
0.918030 0.343842 0.000000
0.947510 0.363037 0.001404
0.966980 0.376953 0.000000
0.994324 0.399750 0.000000
1.000000 0.417328 0.000000
0.000000 0.288422 0.105896
0.000000 0.286133 0.105896
0.000000 0.287537 0.105896
0.000000 0.290314 0.101074
0.000000 0.286011 0.106384
0.000641 0.286652 0.108032
0.000000 0.291443 0.105896
0.001526 0.299286 0.098053
0.000000 0.312958 0.087402
0.000000 0.321686 0.074127
0.013519 0.330170 0.052490
0.130280 0.343689 0.027832
0.220856 0.362030 0.000000
0.314331 0.370239 0.001526
0.414276 0.395050 0.000519
0.488770 0.404419 0.004547
0.541077 0.388580 0.001892
0.591797 0.380371 0.003052
0.633423 0.372131 0.001648
0.678711 0.365051 0.001526
0.714874 0.350769 0.000000
0.748138 0.343933 0.000000
0.781281 0.341522 0.002777
0.814301 0.342438 0.001007
0.841370 0.350891 0.002411
0.868927 0.361267 0.000000
0.894897 0.371643 0.000000
0.929016 0.384033 0.003021
0.945465 0.399353 0.000000
0.971802 0.414917 0.000000
0.994049 0.429352 0.000000
0.996063 0.449188 0.004547
0.000000 0.331421 0.113098
0.000000 0.333710 0.115356
0.000000 0.328888 0.118164
0.000000 0.330414 0.122192
0.002289 0.326355 0.119781
0.000000 0.329773 0.123199
0.000000 0.332825 0.117126
0.000000 0.335968 0.110809
0.000000 0.351654 0.104858
0.007324 0.355591 0.092834
0.000000 0.372772 0.073120
0.078796 0.377075 0.048706
0.186951 0.393158 0.018097
0.278809 0.405914 0.000000
0.368225 0.414154 0.003937
0.472839 0.440857 0.000000
0.554840 0.448944 0.000000
0.600647 0.438934 0.005035
0.642761 0.435028 0.003296
0.679565 0.427185 0.000000
0.716919 0.417938 0.000885
0.752838 0.410461 0.000000
0.785980 0.401367 0.001129
0.819489 0.395813 0.004913
0.846039 0.393280 0.000000
0.873871 0.401245 0.000000
0.896759 0.411499 0.004547
0.927246 0.423401 0.000000
0.943848 0.433624 0.000000
0.974060 0.446533 0.004059
0.995697 0.461090 0.000519
0.998352 0.473236 0.000000
0.000000 0.373535 0.121582
0.000000 0.373535 0.125092
0.002167 0.371399 0.125092
0.005310 0.371002 0.130798
0.002167 0.371887 0.125610
0.002777 0.371887 0.126862
0.004669 0.370392 0.131927
0.002655 0.376953 0.129028
0.007965 0.379608 0.113342
0.002167 0.393646 0.109406
0.001007 0.407440 0.092224
0.023132 0.416290 0.074127
0.149506 0.431854 0.041870
0.247925 0.441223 0.000519
0.334320 0.445892 0.000000
0.425262 0.461853 0.003540
0.525421 0.480194 0.006073
0.604706 0.500793 0.000000
0.646698 0.488525 0.001038
0.689209 0.478790 0.002167
0.722839 0.477509 0.007843
0.760925 0.470306 0.002533
0.792389 0.462982 0.001129
0.817322 0.457672 0.000000
0.846069 0.448151 0.001282
0.875519 0.445526 0.000000
0.906372 0.447418 0.002411
0.931946 0.454132 0.001770
0.952179 0.465515 0.000000
0.973816 0.481476 0.001892
0.995575 0.493469 0.003540
0.993927 0.504730 0.002167
0.000000 0.415283 0.133057
0.000000 0.415283 0.137115
0.000000 0.415283 0.137634
0.000000 0.415283 0.140900
0.002533 0.414795 0.143219
0.003143 0.411377 0.142426
0.002014 0.414154 0.151306
0.004791 0.413391 0.145233
0.000000 0.422363 0.140167
0.003418 0.428558 0.130035
0.001892 0.442108 0.113739
0.006836 0.450958 0.093994
0.125336 0.461578 0.072876
0.229462 0.473846 0.035156
0.312042 0.479797 0.002289
0.391632 0.497772 0.001892
0.479248 0.505615 0.003784
0.567047 0.525757 0.003784
0.652252 0.542419 0.003784
0.698181 0.535828 0.000000
0.727020 0.528381 0.000000
0.763306 0.521179 0.000000
0.793427 0.513336 0.000000
0.820496 0.510559 0.000000
0.846436 0.505493 0.002014
0.877441 0.505493 0.000000
0.903503 0.497650 0.000000
0.931671 0.495605 0.003418
0.957367 0.497406 0.007477
0.972290 0.509033 0.002136
0.997742 0.521057 0.000000
0.994171 0.533051 0.005951
0.000000 0.457184 0.149139
0.002014 0.459229 0.151184
0.002014 0.457184 0.153198
0.002014 0.457184 0.153198
0.001892 0.456329 0.150818
0.002533 0.454529 0.151184
0.000763 0.455292 0.154449
0.001129 0.454407 0.157867
0.005829 0.456177 0.157867
0.004669 0.465271 0.148163
0.003784 0.478699 0.140167
0.001892 0.487305 0.120453
0.101410 0.495392 0.097809
0.202087 0.511322 0.075684
0.293823 0.517273 0.029144
0.371887 0.523865 0.002167
0.457336 0.537537 0.000000
0.531342 0.549408 0.002014
0.610626 0.563690 0.000244
0.694397 0.585083 0.002258
0.730438 0.578125 0.000000
0.768890 0.572174 0.002014
0.793427 0.566254 0.000000
0.824432 0.562195 0.000000
0.854279 0.555237 0.002899
0.879333 0.552216 0.003174
0.905121 0.551453 0.006317
0.926514 0.546875 0.000519
0.953461 0.541565 0.001526
0.977112 0.545105 0.001648
0.997589 0.549164 0.000000
1.000000 0.561066 0.000000
0.001770 0.497040 0.170776
0.001770 0.497040 0.170776
0.001770 0.495148 0.168884
0.001770 0.500580 0.172546
0.002167 0.498810 0.170776
0.000000 0.498810 0.170776
0.001770 0.497040 0.175354
0.000000 0.495270 0.169006
0.002777 0.494141 0.177216
0.001007 0.501709 0.160675
0.002655 0.507416 0.159027
0.000000 0.519196 0.142090
0.091309 0.521454 0.126892
0.196289 0.539673 0.100708
0.282562 0.549408 0.079987
0.357697 0.557648 0.031281
0.437469 0.565735 0.000000
0.513123 0.579407 0.000000
0.586609 0.583435 0.000000
0.653625 0.596100 0.000519
0.729919 0.614685 0.004303
0.767120 0.620758 0.000519
0.795441 0.610779 0.005920
0.827332 0.612915 0.001007
0.854401 0.603821 0.000000
0.881470 0.601166 0.000000
0.905762 0.596100 0.000000
0.926239 0.589905 0.000000
0.951813 0.587616 0.001770
0.974457 0.587891 0.000519
0.997986 0.584961 0.000000
1.000000 0.586853 0.004303
0.000000 0.536896 0.183319
0.003784 0.539032 0.185455
0.000000 0.537140 0.183563
0.000000 0.538788 0.185211
0.002136 0.535767 0.187103
0.001648 0.537903 0.186218
0.000000 0.536133 0.191925
0.001648 0.536896 0.186096
0.001648 0.532593 0.196075
0.001648 0.535248 0.189880
0.002289 0.542450 0.184723
0.002777 0.550537 0.170166
0.100281 0.559540 0.155212
0.201355 0.571533 0.143097
0.282562 0.579010 0.125397
0.354828 0.585968 0.085449
0.425446 0.592041 0.040100
0.501099 0.606720 0.006714
0.568268 0.611389 0.000000
0.630127 0.622528 0.008362
0.689178 0.629486 0.002289
0.762054 0.654663 0.000000
0.798218 0.657440 0.002289
0.827332 0.650604 0.002899
0.851379 0.647461 0.000000
0.876282 0.641388 0.000000
0.904633 0.639221 0.000000
0.925110 0.636078 0.000000
0.946350 0.633301 0.000763
0.972046 0.631012 0.000000
0.997223 0.627075 0.003021
0.997711 0.628723 0.006836
0.000000 0.580658 0.206329
0.001526 0.577637 0.204803
0.001526 0.575470 0.202667
0.001526 0.577240 0.204437
0.006317 0.572815 0.209625
0.000000 0.580658 0.203308
0.000000 0.574341 0.204193
0.001526 0.572815 0.210236
0.002014 0.572815 0.216064
0.001129 0.573181 0.212036
0.008575 0.576752 0.208984
0.027954 0.584961 0.199127
0.131287 0.590637 0.178864
0.216553 0.601013 0.175873
0.291046 0.606567 0.153717
0.359619 0.614075 0.137146
0.427979 0.624420 0.107544
0.489349 0.632904 0.063904
0.554871 0.640137 0.018097
0.610504 0.648834 0.000000
0.670593 0.655670 0.003784
0.726257 0.664795 0.000000
0.785950 0.682495 0.000000
0.829865 0.696289 0.002411
0.848969 0.681732 0.004791
0.880981 0.682617 0.007233
0.901581 0.676300 0.003937
0.923981 0.678192 0.000519
0.945862 0.676300 0.000000
0.973053 0.668457 0.001251
0.995819 0.667053 0.000244
1.000000 0.666931 0.000000
0.002777 0.611511 0.221893
0.005310 0.616577 0.219360
0.002533 0.612671 0.225830
0.003937 0.614441 0.226440
0.004547 0.614929 0.226715
0.000641 0.613525 0.225311
0.001770 0.613434 0.230103
0.000885 0.614319 0.230896
0.002899 0.610260 0.227570
0.001404 0.611542 0.234802
0.002533 0.611389 0.232391
0.081451 0.613800 0.220520
0.177856 0.625946 0.211517
0.240326 0.632782 0.206451
0.309418 0.637451 0.192291
0.372650 0.646667 0.182037
0.427612 0.651367 0.151703
0.488190 0.660339 0.131317
0.546112 0.663391 0.095886
0.604065 0.670349 0.052002
0.652130 0.680725 0.001404
0.708923 0.687164 0.000000
0.757263 0.690704 0.000000
0.815186 0.710327 0.003296
0.850616 0.723846 0.000000
0.881226 0.716125 0.000000
0.905121 0.713348 0.002533
0.921936 0.715515 0.000000
0.951416 0.710693 0.002533
0.973419 0.708160 0.000000
0.991791 0.705505 0.001251
0.996063 0.706787 0.000000
0.002655 0.651123 0.251129
0.002655 0.651123 0.251129
0.002655 0.651123 0.251129
0.006592 0.652496 0.253784
0.001251 0.652008 0.250610
0.001892 0.647827 0.249084
0.001892 0.646576 0.256927
0.000885 0.645538 0.255920
0.005585 0.645294 0.265137
0.011353 0.647705 0.257690
0.085419 0.643280 0.261627
0.161804 0.649841 0.254669
0.216431 0.655273 0.247314
0.278656 0.661621 0.244293
0.335480 0.664642 0.226349
0.390350 0.672119 0.214050
0.439758 0.677948 0.203430
0.486176 0.688568 0.178131
0.549683 0.690338 0.154846
0.599518 0.699310 0.136017
0.647705 0.703247 0.093384
0.694397 0.713867 0.028992
0.739655 0.720581 0.000000
0.785706 0.721954 0.002655
0.834167 0.741180 0.002533
0.876678 0.755737 0.000763
0.900055 0.752441 0.003296
0.928162 0.748657 0.002655
0.943573 0.747009 0.003540
0.972046 0.744232 0.001251
0.995575 0.742706 0.000000
1.000000 0.737396 0.002533
0.000000 0.681732 0.278931
0.000122 0.682861 0.277802
0.003052 0.681976 0.276917
0.005585 0.684509 0.279449
0.005066 0.682861 0.281219
0.001129 0.681732 0.281342
0.000763 0.680969 0.286774
0.014923 0.679840 0.286011
0.066559 0.682861 0.288177
0.126923 0.677795 0.290100
0.183319 0.680084 0.289703
0.228973 0.673889 0.283752
0.270599 0.685791 0.288177
0.317902 0.686157 0.273895
0.358246 0.690704 0.258575
0.412628 0.701324 0.248230
0.449097 0.706390 0.241241
0.504272 0.710327 0.227600
0.549164 0.713104 0.207092
0.598389 0.725250 0.190277
0.637329 0.729675 0.163971
0.690460 0.733856 0.140930
0.731567 0.736633 0.090607
0.766998 0.749420 0.021515
0.808746 0.751678 0.000885
0.854889 0.765961 0.000763
0.900055 0.783173 0.008972
0.924469 0.782562 0.001770
0.947876 0.777374 0.000366
0.972687 0.776093 0.002777
0.998474 0.774841 0.002777
0.998871 0.771912 0.002258
0.000000 0.714630 0.319427
0.002899 0.714630 0.316528
0.002899 0.712585 0.313477
0.003937 0.713593 0.314484
0.024414 0.713593 0.314484
0.066956 0.714630 0.312347
0.106689 0.714752 0.311829
0.156891 0.712738 0.317413
0.189911 0.712585 0.317535
0.225433 0.709686 0.321564
0.259857 0.710938 0.324615
0.289825 0.706787 0.322845
0.322449 0.712585 0.325745
0.362030 0.716248 0.313232
0.395050 0.721069 0.304138
0.433899 0.726379 0.294006
0.473785 0.727264 0.282867
0.514618 0.737396 0.271973
0.559418 0.739532 0.252502
0.598755 0.747009 0.246826
0.640625 0.752441 0.226837
0.681610 0.759399 0.201904
0.724609 0.764587 0.172821
0.754852 0.768494 0.148773
0.792664 0.771667 0.092133
0.833771 0.783936 0.015320
0.878052 0.794189 0.000000
0.914734 0.809235 0.000000
0.949402 0.809113 0.002899
0.970032 0.805573 0.000000
0.989899 0.807587 0.000000
1.000000 0.806702 0.000000
0.134766 0.745483 0.340668
0.148438 0.746246 0.345490
0.164856 0.742432 0.347626
0.175354 0.744598 0.350677
0.195984 0.744965 0.344208
0.208252 0.739166 0.350677
0.236206 0.741699 0.351685
0.258698 0.742432 0.348145
0.280609 0.740540 0.356232
0.307159 0.740417 0.357117
0.330048 0.740662 0.352448
0.355103 0.739899 0.354462
0.381775 0.736115 0.364197
0.406586 0.745728 0.356110
0.432251 0.745087 0.344604
0.463135 0.755219 0.335114
0.496674 0.754211 0.328766
0.533234 0.762054 0.313721
0.569519 0.768250 0.311066
0.606354 0.767487 0.297302
0.638458 0.777740 0.275513
0.676544 0.781281 0.260864
0.713104 0.788361 0.236938
0.752686 0.789368 0.224304
0.779907 0.793427 0.190765
0.814667 0.801270 0.145111
0.849854 0.805450 0.094513
0.892456 0.818085 0.015686
0.941559 0.832764 0.007477
0.972290 0.839600 0.000885
0.995575 0.837952 0.007721
1.000000 0.835693 0.000000
0.264648 0.769531 0.380524
0.265686 0.770416 0.381409
0.276428 0.771027 0.383698
0.284637 0.767487 0.384064
0.293640 0.769531 0.385956
0.302094 0.767731 0.385834
0.315521 0.773438 0.392303
0.332092 0.771149 0.389252
0.347382 0.769257 0.387970
0.369507 0.769379 0.395447
0.390533 0.772186 0.394043
0.407074 0.766998 0.401398
0.427704 0.769531 0.404327
0.448975 0.767120 0.396210
0.476776 0.773438 0.390137
0.499176 0.776215 0.383698
0.526642 0.779633 0.380890
0.553589 0.784943 0.366852
0.589508 0.791290 0.357880
0.612793 0.791412 0.338898
0.647186 0.801636 0.336121
0.677063 0.805817 0.321198
0.712738 0.811127 0.308807
0.744965 0.816589 0.282227
0.773193 0.817200 0.262360
0.809479 0.821259 0.233917
0.844543 0.829102 0.195587
0.867676 0.832520 0.158386
0.908905 0.844025 0.091858
0.961304 0.861481 0.012665
0.991638 0.865143 0.000000
1.000000 0.863647 0.000000
0.353210 0.804688 0.427582
0.351562 0.802032 0.425049
0.362579 0.801147 0.427582
0.363708 0.794952 0.425690
0.365082 0.795959 0.425446
0.380524 0.794830 0.429474
0.390259 0.800018 0.428101
0.393799 0.802277 0.427979
0.411652 0.796204 0.432526
0.423157 0.798737 0.434296
0.444519 0.794830 0.439972
0.456665 0.798615 0.439972
0.477051 0.792419 0.436584
0.495270 0.795837 0.438965
0.510193 0.798981 0.438446
0.531311 0.804047 0.430389
0.555237 0.803925 0.422394
0.577118 0.808746 0.410370
0.604309 0.815430 0.409607
0.624054 0.821625 0.405212
0.655792 0.824799 0.386719
0.682495 0.831512 0.367981
0.710327 0.832764 0.358124
0.737762 0.836945 0.336884
0.763580 0.841492 0.326141
0.800751 0.847687 0.305634
0.829468 0.848450 0.274017
0.861847 0.857178 0.255676
0.893860 0.861481 0.216949
0.930176 0.868958 0.168518
0.973938 0.885895 0.091492
0.996704 0.895508 0.017700
0.430756 0.825928 0.471985
0.431244 0.825928 0.471985
0.431244 0.825928 0.471985
0.431244 0.825928 0.471985
0.443024 0.823029 0.472504
0.445923 0.825928 0.471985
0.455536 0.825928 0.475891
0.470856 0.826813 0.480713
0.474884 0.823029 0.480835
0.482239 0.825317 0.480957
0.497772 0.824677 0.478821
0.511566 0.825043 0.483246
0.523071 0.823914 0.483643
0.536224 0.824158 0.484131
0.551666 0.827698 0.488922
