luts/LUTsWarmTonesPresetpro/OPEN - Warm Tones LUT/2. Presetpro - Warm Tones LUT/Presetpro - Warm Tones.cube
#Created by: Adobe Photoshop Export Color Lookup Plugin
#Copyright: (C) Copyright 2022 Tim Martin and Presetpro.com
TITLE "Presetpro - Warm Tones.jpg"
#LUT size
LUT_3D_SIZE 5
#data domain
#LUT data points
DOMAIN_MIN 0.000000 0.000000 0.000000
DOMAIN_MAX 0.903226 0.903226 0.903226
0.003937 0.003937 0.000000
0.098938 0.027466 0.011780
0.328644 0.004303 0.019623
0.674774 0.001251 0.009094
0.925110 0.010620 0.001129
0.003052 0.117249 0.059723
0.048828 0.148621 0.026184
0.391876 0.135101 0.010010
0.707031 0.103333 0.000000
0.943970 0.222900 0.001770
0.000000 0.373535 0.121582
0.002655 0.376953 0.129028
0.334320 0.445892 0.000000
0.760925 0.470306 0.002533
0.952179 0.465515 0.000000
0.002655 0.651123 0.251129
0.000885 0.645538 0.255920
0.335480 0.664642 0.226349
0.694397 0.713867 0.028992
0.943573 0.747009 0.003540
0.487549 0.849854 0.514984
0.516266 0.850739 0.518768
0.592010 0.849854 0.538513
0.705261 0.879944 0.494507
0.869843 0.908295 0.378113
0.003052 0.027466 0.132050
0.093719 0.041870 0.147736
0.353943 0.002167 0.138153
0.680481 0.003052 0.166473
0.927765 0.137634 0.164307
0.003937 0.144714 0.153442
0.090698 0.161285 0.169128
0.396698 0.173035 0.164307
0.711853 0.163940 0.156097
0.932068 0.268188 0.148621
0.001770 0.411865 0.241486
0.001770 0.410614 0.227051
0.397583 0.460693 0.177368
0.762695 0.462860 0.094604
0.951050 0.477295 0.072754
0.039825 0.663757 0.333954
0.194824 0.656799 0.337524
0.408081 0.668579 0.330933
0.707794 0.713470 0.238464
0.948273 0.743073 0.095642
0.526367 0.856934 0.554199
0.550171 0.854279 0.556366
0.610626 0.851990 0.571014
0.711212 0.876923 0.533600
0.877289 0.912201 0.454407
0.000000 0.070190 0.373535
0.117767 0.081085 0.382263
0.455139 0.074524 0.401001
0.736267 0.002167 0.373535
0.951416 0.091827 0.365326
0.003052 0.189606 0.393524
0.155212 0.207458 0.403137
0.484741 0.235413 0.419708
0.750549 0.233246 0.395294
0.947876 0.262115 0.377472
0.003937 0.449829 0.410980
0.204132 0.461578 0.421478
0.518646 0.487274 0.446289
0.755737 0.485107 0.424530
0.933960 0.514343 0.416687
0.441742 0.687805 0.516144
0.503876 0.689056 0.524353
0.562653 0.685150 0.510803
0.737030 0.717773 0.482971
0.943451 0.727020 0.425049
0.631622 0.866913 0.662994
0.631622 0.865143 0.658691
0.663361 0.864777 0.647308
0.737396 0.873383 0.643372
0.890839 0.910431 0.592407
0.080505 0.136139 0.647339
0.306122 0.142578 0.650360
0.603790 0.181030 0.665527
0.814545 0.278687 0.679962
0.945740 0.357635 0.648224
0.154724 0.262482 0.653778
0.335754 0.274628 0.657684
0.612396 0.319519 0.670349
0.811523 0.400269 0.686920
0.939026 0.449097 0.660736
0.006073 0.480682 0.648071
0.292603 0.489044 0.657684
0.597595 0.528778 0.676025
0.794067 0.590637 0.695129
0.925232 0.602386 0.674774
0.432892 0.708679 0.671997
0.493347 0.711182 0.673370
0.630219 0.716888 0.683746
0.785706 0.734741 0.708679
0.919556 0.735748 0.684265
0.668579 0.878174 0.758759
0.686401 0.878571 0.762695
0.739166 0.880341 0.770538
0.781403 0.881226 0.757874
0.894623 0.914368 0.741302
0.538910 0.334595 0.869446
0.605072 0.354218 0.873505
0.732178 0.417328 0.865906
0.863770 0.525360 0.869446
0.971405 0.598114 0.872986
0.541443 0.431641 0.866791
0.607727 0.443909 0.866425
0.730042 0.494354 0.866425
0.857697 0.580780 0.869568
0.963074 0.635559 0.870331
0.515381 0.578857 0.863770
0.579773 0.589752 0.864655
0.716125 0.619843 0.869446
0.843781 0.674774 0.871216
0.950806 0.716125 0.876282
0.499329 0.738403 0.862640
0.538025 0.737885 0.861237
0.635040 0.733093 0.856415
0.819366 0.768372 0.875153
0.950928 0.818970 0.889435
0.634155 0.896912 0.869446
0.658569 0.897797 0.869446
0.718658 0.902985 0.871613
0.814697 0.908661 0.876038
0.940430 0.924744 0.889435
