luts/LUTsWarmTonesPresetpro/OPEN - Warm Tones LUT/2. Presetpro - Warm Tones LUT/Presetpro - Warm Tones.cube
#Created by: Adobe Photoshop Export Color Lookup Plugin
#Copyright: (C) Copyright 2022 Tim Martin and Presetpro.com
TITLE "Presetpro - Warm Tones.jpg"
#LUT size
LUT_3D_SIZE 8
#data domain
#LUT data points
DOMAIN_MIN 0.000000 0.000000 0.000000
DOMAIN_MAX 0.903226 0.903226 0.903226
0.003937 0.003937 0.000000
0.047577 0.008362 0.003937
0.111816 0.029480 0.009857
0.236542 0.025940 0.014160
0.423920 0.001892 0.019745
0.624420 0.002533 0.016815
0.796478 0.003052 0.000000
0.925110 0.010620 0.001129
0.003418 0.052002 0.034790
0.027466 0.071106 0.009369
0.129028 0.076019 0.005432
0.263489 0.074005 0.017700
0.445923 0.023010 0.013275
0.640625 0.002014 0.005066
0.801392 0.003418 0.006836
0.937134 0.119171 0.000885
0.002899 0.144196 0.058929
0.001007 0.148132 0.074524
0.070587 0.182526 0.037201
0.300812 0.199615 0.005829
0.493622 0.159882 0.002899
0.671997 0.150146 0.002411
0.824921 0.177734 0.003021
0.939667 0.258423 0.006073
0.000000 0.288422 0.105896
0.000000 0.286011 0.106384
0.000000 0.312958 0.087402
0.220856 0.362030 0.000000
0.541077 0.388580 0.001892
0.714874 0.350769 0.000000
0.841370 0.350891 0.002411
0.945465 0.399353 0.000000
0.000000 0.457184 0.149139
0.001892 0.456329 0.150818
0.005829 0.456177 0.157867
0.101410 0.495392 0.097809
0.457336 0.537537 0.000000
0.730438 0.578125 0.000000
0.854279 0.555237 0.002899
0.953461 0.541565 0.001526
0.002777 0.611511 0.221893
0.004547 0.614929 0.226715
0.002899 0.610260 0.227570
0.177856 0.625946 0.211517
0.427612 0.651367 0.151703
0.652130 0.680725 0.001404
0.850616 0.723846 0.000000
0.951416 0.710693 0.002533
0.134766 0.745483 0.340668
0.195984 0.744965 0.344208
0.280609 0.740540 0.356232
0.381775 0.736115 0.364197
0.496674 0.754211 0.328766
0.638458 0.777740 0.275513
0.779907 0.793427 0.190765
0.941559 0.832764 0.007477
0.487549 0.849854 0.514984
0.499451 0.850861 0.518402
0.524231 0.854004 0.520691
0.565582 0.851868 0.530304
0.619110 0.859192 0.527130
0.684265 0.873749 0.497162
0.772949 0.889557 0.455658
0.869843 0.908295 0.378113
0.003418 0.011780 0.071594
0.043152 0.020630 0.068695
0.118164 0.034271 0.071594
0.245789 0.041107 0.085266
0.431396 0.000519 0.100433
0.633789 0.002533 0.093231
0.796478 0.000000 0.081848
0.927887 0.079834 0.063873
0.000000 0.071594 0.086792
0.031372 0.076019 0.084381
0.118256 0.093628 0.084869
0.267395 0.086273 0.091217
0.454803 0.053375 0.085907
0.647064 0.000519 0.088165
0.811401 0.005554 0.070465
0.942963 0.150543 0.056793
0.000519 0.161926 0.122589
0.001007 0.164307 0.111938
0.081085 0.189880 0.099548
0.306732 0.192780 0.080841
0.499939 0.175079 0.073486
0.676910 0.167236 0.057800
0.816956 0.197723 0.036316
0.936615 0.273376 0.007843
0.000000 0.305603 0.147614
0.000519 0.305603 0.147614
0.003418 0.315491 0.133575
0.245392 0.367859 0.082092
0.549408 0.388977 0.000519
0.718048 0.347839 0.001404
0.843903 0.355347 0.001770
0.948883 0.402771 0.006470
0.000519 0.474274 0.192810
0.000000 0.471375 0.189392
0.000519 0.469330 0.195709
0.168091 0.496399 0.164337
0.476807 0.536011 0.058563
0.727386 0.579651 0.000000
0.855682 0.557251 0.003418
0.951813 0.540680 0.001526
0.000000 0.623932 0.259094
0.000519 0.618622 0.264893
0.003021 0.617096 0.261108
0.233521 0.629730 0.258698
0.448608 0.653259 0.206696
0.664886 0.682098 0.113098
0.852753 0.724487 0.002533
0.948883 0.708160 0.001007
0.215942 0.745361 0.367493
0.250244 0.746368 0.376343
0.322327 0.742584 0.378113
0.407837 0.740540 0.386963
0.512115 0.756104 0.363831
0.644043 0.777222 0.318298
0.785950 0.797363 0.243652
0.940918 0.831512 0.047577
0.503601 0.853760 0.531067
0.510315 0.854279 0.526367
0.537750 0.857941 0.544342
0.577240 0.853149 0.545746
0.624176 0.858185 0.540314
0.689331 0.875885 0.517395
0.768250 0.888550 0.474884
0.873749 0.908295 0.409485
0.000000 0.028473 0.170654
0.019104 0.032898 0.164825
0.118774 0.050995 0.166718
0.252747 0.042633 0.166718
0.454407 0.003784 0.163818
0.652740 0.001526 0.172668
0.799500 0.030609 0.200012
0.924988 0.161926 0.197845
0.000000 0.080444 0.176086
0.018097 0.091705 0.185822
0.132935 0.100555 0.184418
0.276764 0.099548 0.171265
0.477325 0.037323 0.173553
0.650848 0.074646 0.195190
0.809235 0.119934 0.195190
0.934723 0.208984 0.195435
0.001007 0.180511 0.182526
0.000000 0.189362 0.189880
0.130554 0.204041 0.198212
0.317505 0.207458 0.204559
0.505280 0.206940 0.198975
0.679321 0.208588 0.188354
0.822021 0.236542 0.190247
0.934601 0.302338 0.183533
0.000000 0.334595 0.236420
0.002533 0.340912 0.244659
0.115479 0.346222 0.241730
0.306732 0.368988 0.216309
0.557892 0.380615 0.176727
0.719055 0.351654 0.170135
0.841492 0.377350 0.160522
0.943451 0.415558 0.158875
0.009094 0.496399 0.289429
0.024902 0.492493 0.282623
0.112183 0.490601 0.273865
0.270050 0.505280 0.267914
0.508179 0.544495 0.220734
0.735992 0.573456 0.151031
0.855164 0.550293 0.124725
0.951813 0.546997 0.106873
0.116760 0.636047 0.347229
0.132172 0.635834 0.342804
0.216949 0.633148 0.338013
0.337891 0.627838 0.339661
0.491241 0.656036 0.308807
0.677795 0.684631 0.259460
0.854645 0.721069 0.171265
0.951813 0.703613 0.136993
0.341949 0.751434 0.431885
0.349640 0.751312 0.425446
0.391632 0.749420 0.427948
0.464386 0.748535 0.435669
0.541565 0.758270 0.423920
0.660095 0.778259 0.396973
0.788361 0.798370 0.343567
0.940918 0.838074 0.253265
0.536377 0.855927 0.560913
0.546875 0.854767 0.563568
0.569122 0.854401 0.568878
0.601501 0.853760 0.578003
0.640625 0.857697 0.582550
0.697418 0.874908 0.558014
0.774689 0.888672 0.523468
0.876923 0.908295 0.469177
0.000000 0.052490 0.300171
0.000000 0.061340 0.300293
0.146729 0.072113 0.310425
0.324951 0.068176 0.322815
0.482758 0.013275 0.298279
0.679840 0.002411 0.293732
0.830231 0.003052 0.292328
0.944092 0.035706 0.295380
0.003418 0.108917 0.310944
0.001007 0.114227 0.306610
0.175568 0.127502 0.322296
0.338623 0.133850 0.329132
0.503357 0.108398 0.317261
0.689941 0.054108 0.311279
0.835815 0.017548 0.294617
0.946869 0.185730 0.309937
0.000000 0.203522 0.320282
0.002899 0.202148 0.326630
0.169861 0.228088 0.333069
0.360748 0.251099 0.341919
0.531342 0.241852 0.331177
0.699432 0.226166 0.318756
0.828461 0.258179 0.320801
0.923462 0.349762 0.344086
0.001526 0.355072 0.333069
0.003937 0.367859 0.338379
0.192902 0.372406 0.343933
0.391632 0.389496 0.356598
0.564606 0.389984 0.354187
0.713837 0.394806 0.348633
0.834778 0.415161 0.337006
0.932587 0.444397 0.330292
0.128693 0.521851 0.375214
0.212311 0.523499 0.381134
0.333466 0.524872 0.396973
0.417053 0.530670 0.394287
0.565460 0.550415 0.377594
0.738922 0.562714 0.340515
0.850739 0.544495 0.323456
0.946381 0.556763 0.323822
0.385345 0.651886 0.467041
0.417206 0.652740 0.470947
0.434784 0.651367 0.457184
0.465149 0.652130 0.447327
0.548401 0.660095 0.432129
0.697784 0.685669 0.403168
0.854645 0.711578 0.364563
0.946228 0.694641 0.330688
0.499939 0.757507 0.536743
0.500549 0.759644 0.529541
0.506744 0.761047 0.521454
0.543060 0.756592 0.515625
0.591278 0.755249 0.521057
0.683380 0.777740 0.498047
0.800385 0.800385 0.456543
0.939423 0.833160 0.405182
0.595184 0.858063 0.623016
0.602539 0.857422 0.623138
0.604309 0.857697 0.622406
0.627838 0.860107 0.621490
0.664398 0.859711 0.628448
0.713470 0.872986 0.618347
0.780396 0.890198 0.590118
0.879181 0.909180 0.549011
0.002014 0.082367 0.455170
0.000000 0.088287 0.453400
0.201263 0.095123 0.460999
0.403778 0.102081 0.473877
0.578888 0.094238 0.480713
0.699310 0.070343 0.454163
0.844543 0.130951 0.457336
0.954224 0.198517 0.453918
0.000519 0.142181 0.460999
0.003021 0.147125 0.467316
0.225800 0.152069 0.472870
0.423401 0.168243 0.484131
0.594727 0.172180 0.490601
0.704376 0.166992 0.467560
0.850739 0.209747 0.467804
0.951813 0.252502 0.460114
0.002014 0.237457 0.469971
0.003052 0.241364 0.474152
0.243530 0.256042 0.481750
0.441101 0.280060 0.493500
0.599640 0.303375 0.501343
0.720428 0.301819 0.480713
0.843384 0.325989 0.469086
0.945862 0.347626 0.466064
0.001892 0.374298 0.471344
0.005066 0.379089 0.474548
0.205841 0.388458 0.480194
0.446411 0.415405 0.494141
0.615723 0.442993 0.512238
0.732697 0.444519 0.495026
0.844421 0.441986 0.486023
0.934235 0.458038 0.474274
0.070038 0.539551 0.484528
0.180542 0.540070 0.488190
0.331818 0.547394 0.497437
0.476929 0.553345 0.508179
0.627838 0.566864 0.521973
0.739532 0.569031 0.519562
0.841370 0.564972 0.503235
0.924347 0.580292 0.493011
0.405457 0.670990 0.540558
0.430511 0.672363 0.541565
0.495514 0.674774 0.554352
0.581146 0.673401 0.562561
0.636566 0.674896 0.557404
0.725250 0.694366 0.543976
0.849731 0.700592 0.512085
0.947266 0.676300 0.485168
0.563324 0.769897 0.615326
0.572815 0.770782 0.614044
0.607208 0.766113 0.621002
0.633667 0.770935 0.619629
0.655182 0.765961 0.605072
0.707520 0.779266 0.602783
0.808990 0.803162 0.579651
0.937500 0.827332 0.543732
0.660461 0.865540 0.700195
0.661774 0.865540 0.698303
0.665039 0.865021 0.690613
0.677673 0.865021 0.681610
0.697418 0.865143 0.672363
0.736115 0.869446 0.681488
0.790894 0.890076 0.664154
0.888672 0.910187 0.636688
0.003937 0.124115 0.612671
0.136505 0.126648 0.607208
0.305389 0.131958 0.615204
0.493225 0.147766 0.627319
0.663147 0.196838 0.639099
0.780151 0.234802 0.644043
0.843781 0.245544 0.610626
0.949646 0.328400 0.611267
0.037476 0.178619 0.607849
0.175964 0.184570 0.618469
0.330292 0.187866 0.621246
0.506256 0.206055 0.625427
0.666046 0.254669 0.641144
0.783173 0.294128 0.647461
0.853760 0.299805 0.621521
0.941803 0.372925 0.615936
0.077576 0.275635 0.613678
0.187866 0.280212 0.619110
0.343201 0.296265 0.622040
0.510315 0.319916 0.635681
0.673248 0.363556 0.647827
0.782043 0.397461 0.652405
0.847565 0.400635 0.623688
0.936371 0.451233 0.621002
0.004425 0.400757 0.611389
0.150177 0.408966 0.615448
0.332703 0.421356 0.622772
0.517120 0.442993 0.634277
0.665039 0.484772 0.648468
0.768372 0.517120 0.660095
0.842896 0.518158 0.638733
0.928162 0.543976 0.635925
0.138824 0.551300 0.622040
0.215698 0.552338 0.621521
0.342072 0.555725 0.625824
0.476288 0.559662 0.628876
0.651764 0.585083 0.648834
0.763947 0.618988 0.663879
0.834534 0.620392 0.653259
0.929657 0.615082 0.638458
0.377136 0.680725 0.632263
0.414307 0.680725 0.640106
0.478821 0.677795 0.642517
0.571655 0.687164 0.651093
0.666931 0.693115 0.666565
0.760529 0.706787 0.676788
0.840851 0.702850 0.660614
0.917267 0.703247 0.645660
0.567261 0.788483 0.681213
0.581299 0.785950 0.693878
0.615051 0.785583 0.691589
0.659821 0.785706 0.694366
0.716888 0.785583 0.710052
0.754730 0.788635 0.696411
0.827332 0.808228 0.686279
0.939545 0.812531 0.662994
0.663116 0.878296 0.750153
0.675262 0.875275 0.747894
0.685150 0.877289 0.751801
0.716736 0.879822 0.752441
0.746246 0.877686 0.753082
0.763306 0.879822 0.746887
0.808594 0.888062 0.741943
0.894379 0.907532 0.719055
0.310974 0.191650 0.752441
0.356506 0.196472 0.752808
0.459320 0.207092 0.752441
0.595581 0.235687 0.754822
0.716034 0.296661 0.762177
0.820740 0.385834 0.769897
0.892365 0.422150 0.775970
0.942200 0.426697 0.741302
0.322327 0.244537 0.750793
0.373199 0.246307 0.753326
0.477936 0.257690 0.755219
0.601013 0.289185 0.759277
0.720062 0.341705 0.766235
0.816437 0.422668 0.770905
0.894501 0.457428 0.774963
0.933197 0.458466 0.746765
0.337006 0.340424 0.753326
0.383575 0.343445 0.753326
0.482849 0.358246 0.760162
0.601379 0.382294 0.759644
0.717163 0.427979 0.764069
0.812042 0.496155 0.773956
0.879700 0.527008 0.775848
0.928802 0.519562 0.749908
0.313873 0.454376 0.751160
0.367981 0.458191 0.752197
0.469208 0.473358 0.754333
0.592529 0.492981 0.761169
0.706787 0.528412 0.769012
0.803680 0.579773 0.774841
0.867950 0.603424 0.777740
0.921204 0.598480 0.759277
0.249725 0.566986 0.739532
0.299164 0.569519 0.742065
0.424774 0.572937 0.747375
0.565948 0.585571 0.754333
0.687286 0.616974 0.763947
0.790894 0.656677 0.781677
0.866791 0.678833 0.786469
0.922211 0.675140 0.767120
0.404327 0.689575 0.746368
0.430756 0.690460 0.752686
0.484131 0.690460 0.753693
0.559143 0.691589 0.753448
0.654785 0.690582 0.760284
0.770264 0.720428 0.770905
0.858337 0.749268 0.795441
0.917389 0.752808 0.783813
0.534607 0.789520 0.758118
0.554199 0.793427 0.765961
0.587463 0.789520 0.766113
0.635681 0.799500 0.766602
0.703094 0.798492 0.777863
0.771149 0.805695 0.783813
0.848328 0.820892 0.797363
0.923340 0.809113 0.784576
0.665924 0.890717 0.803558
0.675415 0.891083 0.800903
0.687164 0.888062 0.801910
0.717773 0.890320 0.807709
0.759796 0.892975 0.815582
0.806580 0.896515 0.818481
0.841888 0.892487 0.814056
0.916016 0.916138 0.804810
0.538910 0.334595 0.869446
0.562927 0.342834 0.865906
0.618347 0.361053 0.870972
0.695496 0.395691 0.865784
0.770416 0.445312 0.872986
0.847198 0.506897 0.875641
0.908539 0.581421 0.873505
0.971405 0.598114 0.872986
0.545868 0.372040 0.869446
0.571045 0.380890 0.869843
0.623657 0.395691 0.869965
0.692078 0.424164 0.863647
0.770905 0.472107 0.868073
0.845306 0.533203 0.867310
0.909058 0.595459 0.873383
0.963959 0.613800 0.872986
0.545349 0.449951 0.865906
0.564697 0.458557 0.868439
0.617584 0.468567 0.868439
0.688812 0.493225 0.867554
0.769409 0.531952 0.868805
0.839966 0.583435 0.870972
0.903351 0.635925 0.874023
0.959656 0.649078 0.873383
0.530426 0.540802 0.863251
0.556366 0.542175 0.862366
0.607849 0.553558 0.863647
0.680328 0.573547 0.867035
0.761169 0.600372 0.870819
0.830750 0.637573 0.868042
0.901337 0.680847 0.874756
0.956116 0.696381 0.873749
0.493225 0.620514 0.861237
0.521820 0.624542 0.865021
0.573944 0.627350 0.863892
0.655762 0.645020 0.865540
0.742065 0.662109 0.870453
0.824158 0.692596 0.875519
0.891968 0.731323 0.876282
0.955719 0.742950 0.874756
0.471619 0.711700 0.859833
0.493744 0.710571 0.860229
0.529541 0.712738 0.857697
0.602509 0.708160 0.858704
0.702728 0.723480 0.863007
0.798615 0.750916 0.872742
0.884247 0.781281 0.880341
0.949280 0.800751 0.884369
0.561676 0.808746 0.868561
0.572052 0.806061 0.861115
0.598114 0.807098 0.862610
0.639465 0.806580 0.870850
0.697296 0.807587 0.867035
0.757111 0.806702 0.870972
0.861847 0.829742 0.872864
0.943970 0.868439 0.892487
0.634155 0.896912 0.869446
0.641998 0.896912 0.865540
0.664154 0.899811 0.868439
0.693359 0.900452 0.869446
0.738892 0.898926 0.870972
0.796204 0.905121 0.876678
0.863525 0.914734 0.881592
0.940430 0.924744 0.889435
